jimu.js/css/images/clearAllSelectedNormal.svg

<?xml version="1.0" encoding="UTF-8"?>
<svg width="13px" height="16px" viewBox="0 0 13 16" version="1.1" xmlns="http://www.w3.org/2000/svg" xmlns:xlink="http://www.w3.org/1999/xlink">
    <!-- Generator: Sketch 51.1 (57501) - http://www.bohemiancoding.com/sketch -->
    <title>delete</title>
    <desc>Created with Sketch.</desc>
    <defs></defs>
    <g id="filter" stroke="none" stroke-width="1" fill="none" fill-rule="evenodd">
        <g id="select-component" transform="translate(-404.000000, -701.000000)">
            <g id="delete" transform="translate(404.000000, 701.000000)">
                <path d="M0.888888889,14.2222222 C0.888888889,15.2 1.68888889,16 2.66666667,16 L9.77777778,16 C10.7555556,16 11.5555556,15.2 11.5555556,14.2222222 L11.5555556,3.55555556 L0.888888889,3.55555556 L0.888888889,14.2222222 L0.888888889,14.2222222 Z M12.4444444,0.888888889 L9.33333333,0.888888889 L8.44444444,0 L4,0 L3.11111111,0.888888889 L0,0.888888889 L0,2.66666667 L12.4444444,2.66666667 L12.4444444,0.888888889 L12.4444444,0.888888889 Z" id="Shape" fill="#666666"></path>
                <polygon id="Shape" fill="#FFFFFF" points="5.68493151 10.6538462 3.67123288 8.63461538 3 9.30769231 5.68493151 12 10 7.67307692 9.32876712 7"></polygon>
            </g>
        </g>
    </g>
</svg>

<svg width="13" height="16" xmlns="http://www.w3.org/2000/svg"><g fill="none" fill-rule="evenodd"><path d="M.889 14.222c0 .978.8 1.778 1.778 1.778h7.11c.979 0 1.779-.8 1.779-1.778V3.556H.889v10.666zM12.444.89h-3.11L8.443 0H4l-.889.889H0v1.778h12.444V.889z" fill="#666"/><path fill="#FFF" d="M5.685 10.654L3.67 8.634 3 9.309 5.685 12 10 7.673 9.329 7z"/></g></svg>
